!!!OTL: "Lilliput" KLOAN BIN I KLOAN BLAIB I
!!!ARE: Europa, Mitteleuropa, Oesterreich
!!!SCT: Z1344
!!!YEM: Copyright 1995, estate of Helmut Schaffrath.
**kern
*ICvox
*Ivox
*M3/4
*k[f#]
*G:
{4d
=1
8d
8g
4.g
8f#
=2
8e
8ccc
4.ccc}
{8aa
=3
8gg
8ff#
8ee
8dd
8cc
8f#
=4
4g
8b
8d}
{4g
=5
8d
8g
4.g
8f#
=6
8e
8ccc
4.ccc}
{8aa
=7
8gg
8ff#
8ee
8dd
8cc
8f#
=8
2g}
==
!!!AGN: Zech -, Schalks - Lied
!!!ONB: ESAC (Essen Associative Code) Database: ZUCCAL
!!!AMT: simple triple
!!!AIN: vox
!!!EED: Helmut Schaffrath
!!!EEV: 1.0
*-
